X: 85
T:Newcastle Hill Clog
R:Hornpipe
M:4/4
L:1/8
K:Bb
d>c|B2B,2 (3dcB (3AGF|E2g2 g2f>e|d>fB>d c>eA>c|B>ba>g f>ed>c|
B2B,2 (3dcB (3AGF|E2g2 g2f>e|d>fB>d c>eA>c|B>AB>c B2:|
|:D>C|B,>DF>B d>fb>a|g>^fg>a g2C>B,|A,>CF>A c>fa>g|f>=ef>g f2D>C|
B,>DF>B d>fb>a|g>^fg>a g>de>=e|f>ef>g f>ec>A|B>AB>c B2:|
